other/birthday_calendar.svg

<?xml version="1.0" encoding="UTF-8"?>
<svg version="1.1" viewBox="0 0 48 48" xml:space="preserve" xmlns="http://www.w3.org/2000/svg"><defs><style>.a{fill:none;stroke:#fff;stroke-linecap:round;stroke-linejoin:round;}</style></defs><line x1="24" x2="24" y1="19.53" y2="15.06" fill="none" stroke="#fff" stroke-linecap="round" stroke-linejoin="round"/><path d="m24 15.06c8.6059-2.9801 0-10.43 0-10.43s-8.9412 7.4502 0 10.43z" fill="none" stroke="#fff" stroke-linecap="round" stroke-linejoin="round"/><path d="m30.333 26.608a6.3333 6.3326 0 0 1-12.667 0" fill="none" stroke="#fff" stroke-linecap="round" stroke-linejoin="round"/><path d="m17.667 26.608a6.3333 6.3326 0 0 1-6.2029 6.3326c-3.5578 0.0745-6.4637-2.9056-6.4637-6.463v-2.4772a4.452 4.4515 0 0 1 4.4706-4.4701h29.059a4.452 4.4515 0 0 1 4.4706 4.4701v2.4772c0 3.5574-2.9059 6.5375-6.4637 6.463a6.3333 6.3326 0 0 1-6.2029-6.3326" fill="none" stroke="#fff" stroke-linecap="round" stroke-linejoin="round"/><path d="m40.392 31.692v10.188a1.4902 1.49 0 0 1-1.4902 1.49h-29.804a1.4902 1.49 0 0 1-1.4902-1.49v-10.188" fill="none" stroke="#fff" stroke-linecap="round" stroke-linejoin="round"/><path transform="matrix(.51051 0 0 .51051 10.331 17.04)" d="m26.775 34.696 1.7687 3.5837 3.9548 0.57467-2.8618 2.7895 0.67557 3.9389-3.5373-1.8597-3.5373 1.8597 0.67557-3.9389-2.8618-2.7895 3.9548-0.57467z" fill="none" stroke="#fff" stroke-linecap="round" stroke-linejoin="round" stroke-width="1.9588"/></svg>

<svg xmlns="http://www.w3.org/2000/svg" viewBox="0 0 48 48"><defs><style>.a{fill:none;stroke:#fff;stroke-linecap:round;stroke-linejoin:round;}</style></defs><line class="a" x1="23.9995" y1="19.53" x2="23.9995" y2="15.06"/><path class="a" d="M24,15.06c8.6059-2.98,0-10.43,0-10.43S15.0583,12.08,24,15.06Z"/><path class="a" d="M30.3325,26.608a6.3335,6.3335,0,0,1-12.667,0"/><path class="a" d="M17.6665,26.608a6.3329,6.3329,0,0,1-6.2029,6.3326A6.4312,6.4312,0,0,1,5,26.4776V24a4.4517,4.4517,0,0,1,4.4333-4.47H38.53A4.4517,4.4517,0,0,1,43,23.9631c0,.0125,0,.0249,0,.0373v2.4772a6.4312,6.4312,0,0,1-6.4637,6.463,6.3329,6.3329,0,0,1-6.2029-6.3326"/><path class="a" d="M40.3915,31.692V41.88a1.49,1.49,0,0,1-1.49,1.49H9.0973a1.49,1.49,0,0,1-1.49-1.49h0V31.692"/><path class="a" d="M23.9994,34.7527l.9029,1.83,2.019.2933L25.46,38.3l.3449,2.0109-1.8058-.9494-1.8058.9494L22.5384,38.3l-1.4609-1.4241,2.0189-.2933Z"/></svg>
